src/assets/icons/pul-icon-mixed-material.svg

<!-- Generated by IcoMoon.io -->
<svg version="1.1" xmlns="http://www.w3.org/2000/svg" width="16" height="16" viewBox="0 0 16 16">
<title>mixed-material</title>
<path d="M15.667 2.642c-0.011 0-0.019 0.005-0.029 0.006l-7.554-1.971c-0.055-0.014-0.113-0.014-0.168 0l-7.554 1.971c-0.010-0.001-0.018-0.006-0.029-0.006-0.184 0-0.333 0.149-0.333 0.333v9.358c0 0.14 0.088 0.265 0.219 0.313l7.333 2.667c0.037 0.013 0.075 0.020 0.114 0.020 0.036 0 0.071-0.005 0.105-0.017l8-2.667c0.136-0.045 0.228-0.173 0.228-0.316v-9.358c0-0.184-0.149-0.333-0.333-0.333zM8 1.345l6.319 1.649-6.649 1.663-6.044-1.649 6.374-1.663zM0.667 3.437l6.667 1.818v9.269l-6.667-2.424v-8.663zM8 14.538v-9.278l7.333-1.833v8.667l-7.333 2.445z"></path>
</svg>

<svg xmlns="http://www.w3.org/2000/svg" viewBox="0 0 16 16">
    <path d="M15.667 2.642c-.011 0-.019.005-.029.006L8.084.677a.341.341 0 0 0-.168 0L.362 2.648c-.01-.001-.018-.006-.029-.006A.333.333 0 0 0 0 2.975v9.358c0 .14.088.265.219.313l7.333 2.667a.342.342 0 0 0 .219.003l8-2.667a.333.333 0 0 0 .228-.316V2.975a.333.333 0 0 0-.333-.333zM8 1.345l6.319 1.649L7.67 4.657 1.626 3.008 8 1.345zM.667 3.437l6.667 1.818v9.269L.667 12.1V3.437zM8 14.538V5.26l7.333-1.833v8.667L8 14.539z"/>
</svg>
